img/icons/GitHub.svg

<svg height="48" viewBox="0 0 48 48" width="48" xmlns="http://www.w3.org/2000/svg"><g fill="#161514"><path d="m24.0001987 0c-13.2532064 0-24.0001987 11.0169476-24.0001987 24.6076131 0 10.872288 6.87678742 20.0962718 16.4128006 23.3500936 1.1994536.2277879 1.6398096-.5338143 1.6398096-1.1837636 0-.5867881-.0222562-2.5252265-.0325895-4.58143-6.6768785 1.4885675-8.08577934-2.9033789-8.08577934-2.9033789-1.09174912-2.8442926-2.6647899-3.6005973-2.6647899-3.6005973-2.17753674-1.5272792.16413993-1.4959023.16413993-1.4959023 2.41003517.1735915 3.67903961 2.5358213 3.67903961 2.5358213 2.1405754 3.761964 5.6145393 2.6743686 6.9840943 2.0456088.2154089-1.5904404.8373919-2.6759986 1.5237591-3.2904961-5.3307722-.62224-10.93458088-2.7322324-10.93458088-12.1611845 0-2.6865932.93754504-4.8817514 2.47282968-6.6050342-.2491906-.6197949-1.0706852-3.1226094.2324984-6.512126 0 0 2.015384-.66135909 6.6017636 2.5223741 1.914436-.545224 3.9675761-.818651 6.0072035-.8280233 2.0396275.0093723 4.0943573.2827993 6.0123701.8280233 4.5808156-3.18373319 6.5934175-2.5223741 6.5934175-2.5223741 1.3063631 3.3895166.4844711 5.8923311.2352805 6.512126 1.5388615 1.7232828 2.4700476 3.918441 2.4700476 6.6050342 0 9.4513642-5.6145394 11.5324247-10.9588242 12.1416249.8608404.7636395 1.6278865 2.2611718 1.6278865 4.5569805 0 3.2925334-.0278203 5.9424524-.0278203 6.7529536 0 .6548392.4320099 1.4221463 1.6485531 1.1805037 9.5308466-3.2574893 16.3988905-12.4782131 16.3988905-23.3468337 0-13.5906655-10.7454026-24.6076131-23.9998013-24.6076131"/><path d="m9.16085952 35.1623051c-.05276032.121042-.24.1573547-.41057856.0742391-.173752-.0794842-.2713388-.2445048-.21500824-.3659504.05157024-.1246733.23920664-.159372.412562-.075853.17414872.0794843.27332232.2461188.2130248.3675643"/><path d="m10.1311735 36.2629806c-.1142479.1077274-.3375867.0576967-.4891239-.1125691-.15669424-.1698623-.1860496-.3970178-.07021488-.5063591.11781816-.1077274.3344132-.0572933.49150418.1125691.1566941.1718797.1872396.3974213.0678346.5063591"/><path d="m11.0757025 37.6662612c-.1467769.1036927-.3867769.0064556-.5351405-.2102097-.1467769-.2166652-.1467769-.4765021.0031735-.5805982.1487603-.1040961.3851901-.0104904.5355372.204561.1463802.2202965.1463802.4801334-.0035702.5862469"/><path d="m12.369719 39.0219319c-.1313058.1472678-.4109752.1077273-.6156694-.0932024-.2094546-.1964916-.2677686-.4752917-.1360662-.6225595.1328926-.1476713.4141488-.1061135.6204298.0932023.2078678.1960882.2713389.4769057.1313058.6225596"/><path d="m14.154843 39.8091085c-.0579174.190843-.3272728.2775897-.5986116.1964916-.2709421-.083519-.4482644-.3070433-.3935207-.4999036.0563307-.1920534.3268761-.2824314.6001984-.1956846.2705455.0831155.4482644.3050259.3919339.4990966"/><path d="m16.1153058 39.9551659c.0067438.2009297-.2233388.3675642-.5081653.3711956-.2864132.0064555-.5180827-.1561443-.5212562-.3538463 0-.2029471.2249256-.3679677.5113388-.3728094.2848265-.0056486.5180827.1557407.5180827.3554601"/><path d="m17.9397025 39.6392462c.0341157.1960881-.1638347.3974214-.4466777.4510833-.2780826.0516446-.5355372-.0693975-.570843-.2638716-.0345124-.2009298.1670083-.402263.4446942-.4543111.2832397-.0500307.5367273.0677835.5728265.2670994"/></g></svg>

<?xml version="1.0" encoding="UTF-8"?>
<svg width="48px" height="48px" viewBox="0 0 48 48" version="1.1" xmlns="http://www.w3.org/2000/svg" xmlns:xlink="http://www.w3.org/1999/xlink">
    <!-- Generator: Sketch 50.2 (55047) - http://www.bohemiancoding.com/sketch -->
    <title>Github</title>
    <desc>Created with Sketch.</desc>
    <defs></defs>
    <g id="Github" stroke="none" stroke-width="1" fill="none" fill-rule="evenodd">
        <g fill="#161514" fill-rule="nonzero">
            <path d="M24.0001987,0 C10.7469923,0 0,11.0169476 0,24.6076131 C0,35.4799011 6.87678742,44.7038849 16.4128006,47.9577067 C17.6122542,48.1854946 18.0526102,47.4238924 18.0526102,46.7739431 C18.0526102,46.187155 18.030354,44.2487166 18.0200207,42.1925131 C11.3431422,43.6810806 9.93424136,39.2891342 9.93424136,39.2891342 C8.84249224,36.4448416 7.26945146,35.6885369 7.26945146,35.6885369 C5.09191472,34.1612577 7.43359139,34.1926346 7.43359139,34.1926346 C9.84362656,34.3662261 11.112631,36.7284559 11.112631,36.7284559 C13.2532064,40.4904199 16.7271703,39.4028245 18.0967253,38.7740647 C18.3121342,37.1836243 18.9341172,36.0980661 19.6204844,35.4835686 C14.2897122,34.8613286 8.68590352,32.7513362 8.68590352,23.3223841 C8.68590352,20.6357909 9.62344856,18.4406327 11.1587332,16.7173499 C10.9095426,16.097555 10.088048,13.5947405 11.3912316,10.2052239 C11.3912316,10.2052239 13.4066156,9.54386481 17.9929952,12.727598 C19.9074312,12.182374 21.9605713,11.908947 24.0001987,11.8995747 C26.0398262,11.908947 28.094556,12.182374 30.0125688,12.727598 C34.5933844,9.54386481 36.6059863,10.2052239 36.6059863,10.2052239 C37.9123494,13.5947405 37.0904574,16.097555 36.8412668,16.7173499 C38.3801283,18.4406327 39.3113144,20.6357909 39.3113144,23.3223841 C39.3113144,32.7737483 33.696775,34.8548088 28.3524902,35.464009 C29.2133306,36.2276485 29.9803767,37.7251808 29.9803767,40.0209895 C29.9803767,43.3135229 29.9525564,45.9634419 29.9525564,46.7739431 C29.9525564,47.4287823 30.3845663,48.1960894 31.6011095,47.9544468 C41.1319561,44.6969575 48,35.4762337 48,24.6076131 C48,11.0169476 37.2545974,0 24.0001987,0" id="Fill-4"></path>
            <path d="M9.16085952,35.1623051 C9.1080992,35.2833471 8.92085952,35.3196598 8.75028096,35.2365442 C8.57652896,35.15706 8.47894216,34.9920394 8.53527272,34.8705938 C8.58684296,34.7459205 8.77447936,34.7112218 8.94783472,34.7947408 C9.12198344,34.8742251 9.22115704,35.0408596 9.16085952,35.1623051" id="Fill-5"></path>
            <path d="M10.1311735,36.2629806 C10.0169256,36.370708 9.7935868,36.3206773 9.6420496,36.1504115 C9.48535536,35.9805492 9.456,35.7533937 9.57183472,35.6440524 C9.68965288,35.536325 9.90624792,35.5867591 10.0633389,35.7566215 C10.220033,35.9285012 10.2505785,36.1540428 10.1311735,36.2629806" id="Fill-6"></path>
            <path d="M11.0757025,37.6662612 C10.9289256,37.7699539 10.6889256,37.6727168 10.540562,37.4560515 C10.3937851,37.2393863 10.3937851,36.9795494 10.5437355,36.8754533 C10.6924958,36.7713572 10.9289256,36.8649629 11.0792727,37.0800143 C11.2256529,37.3003108 11.2256529,37.5601477 11.0757025,37.6662612" id="Fill-7"></path>
            <path d="M12.369719,39.0219319 C12.2384132,39.1691997 11.9587438,39.1296592 11.7540496,38.9287295 C11.544595,38.7322379 11.486281,38.4534378 11.6179834,38.30617 C11.750876,38.1584987 12.0321322,38.2000565 12.2384132,38.3993723 C12.446281,38.5954605 12.5097521,38.876278 12.369719,39.0219319" id="Fill-8"></path>
            <path d="M14.154843,39.8091085 C14.0969256,39.9999515 13.8275702,40.0866982 13.5562314,40.0056001 C13.2852893,39.9220811 13.107967,39.6985568 13.1627107,39.5056965 C13.2190414,39.3136431 13.4895868,39.2232651 13.7629091,39.3100119 C14.0334546,39.3931274 14.2111735,39.6150378 14.154843,39.8091085" id="Fill-9"></path>
            <path d="M16.1153058,39.9551659 C16.1220496,40.1560956 15.891967,40.3227301 15.6071405,40.3263615 C15.3207273,40.332817 15.0890578,40.1702172 15.0858843,39.9725152 C15.0858843,39.7695681 15.3108099,39.6045475 15.5972231,39.5997058 C15.8820496,39.5940572 16.1153058,39.7554465 16.1153058,39.9551659" id="Fill-10"></path>
            <path d="M17.9397025,39.6392462 C17.9738182,39.8353343 17.7758678,40.0366676 17.4930248,40.0903295 C17.2149422,40.1419741 16.9574876,40.020932 16.9221818,39.8264579 C16.8876694,39.6255281 17.0891901,39.4241949 17.366876,39.3721468 C17.6501157,39.3221161 17.9036033,39.4399303 17.9397025,39.6392462" id="Fill-11"></path>
        </g>
    </g>
</svg>
